svg/fluentui-system-icons/ic_fluent_gift_20_filled.svg

<svg width="20" height="20" viewBox="0 0 20 20" fill="none" xmlns="http://www.w3.org/2000/svg">
<path d="M9.5 11V18H6.5C5.17452 18 4.08996 16.9685 4.00532 15.6644L4 15.5V11H9.5ZM16 11V15.5C16 16.8255 14.9685 17.91 13.6644 17.9947L13.5 18H10.5V11H16ZM12 2C13.3807 2 14.5 3.11929 14.5 4.5C14.5 5.06324 14.3137 5.58297 13.9995 6.00097L16 6C16.5523 6 17 6.44772 17 7V9C17 9.55228 16.5523 10 16 10H10.5V6H9.5V10H4C3.44772 10 3 9.55228 3 9V7C3 6.44772 3.44772 6 4 6L6.00055 6.00097C5.68626 5.58297 5.5 5.06324 5.5 4.5C5.5 3.11929 6.61929 2 8 2C8.81839 2 9.54493 2.39323 10.001 3.00106C10.4551 2.39323 11.1816 2 12 2ZM12 3C11.1716 3 10.5 3.67157 10.5 4.5V6H12C12.8284 6 13.5 5.32843 13.5 4.5C13.5 3.67157 12.8284 3 12 3ZM8 3C7.17157 3 6.5 3.67157 6.5 4.5C6.5 5.2797 7.09489 5.92045 7.85554 5.99313L8 6H9.5V4.5L9.49313 4.35554C9.42045 3.59489 8.7797 3 8 3Z" fill="#212121"/>
</svg>

<svg xmlns="http://www.w3.org/2000/svg" width="20" height="20"><path d="M9.5 11v7h-3a2.5 2.5 0 0 1-2.495-2.336L4 15.5V11h5.5Zm6.5 0v4.5a2.5 2.5 0 0 1-2.336 2.495L13.5 18h-3v-7H16Zm-4-9a2.5 2.5 0 0 1 2 4.001L16 6a1 1 0 0 1 1 1v2a1 1 0 0 1-1 1h-5.5V6h-1v4H4a1 1 0 0 1-1-1V7a1 1 0 0 1 1-1l2 .001a2.5 2.5 0 1 1 4-3A2.49 2.49 0 0 1 12 2Zm0 1a1.5 1.5 0 0 0-1.5 1.5V6H12a1.5 1.5 0 0 0 0-3ZM8 3a1.5 1.5 0 0 0-.144 2.993L8 6h1.5V4.5l-.007-.144A1.5 1.5 0 0 0 8 3Z"/></svg>
